public/img/leader.svg

<svg fill="none" height="20" viewBox="0 0 20 20" width="20" xmlns="http://www.w3.org/2000/svg"><path d="m0 19.5897c0 .1088.0432239.2132.120163.2901.076939.077.181291.1202.290099.1202h18.211538c.1088 0 .2132-.0432.2901-.1202.0769-.0769.1202-.1813.1202-.2901 0-5.7088-4.997-7.3847-6.2935-7.7293l-.2256-2.07592c.2759-.41878.4765-.8825.5928-1.37028.3487-.24.5539-.80206.7077-1.35181.2257-.79796.2052-1.319-.0554-1.64105-.0486-.05904-.106-.11024-.1702-.1518.0123-.05128.0225-.10256.0348-.16.2442-1.46464.1026-2.54157-.4102-3.2021-.1958-.25722-.4657-.44835-.7734-.5477-.2632-.363333-.6054-.662137-1.001-.873853-.661-.383485-1.4268-.5465776-2.18669-.4656476-.30306.015008-.60262.071607-.89027.1682076-.33609.115052-.6544.276624-.94565.480006-.3501.221024-.67063.485717-.95386.787707-.51651.50554-.88227 1.14474-1.05643 1.84618-.1375.59455-.1375 1.21264 0 1.8072.00957.05197.01983.10325.03077.15385-.06083.04038-.11542.08945-.16205.14564-.26667.31795-.28513.84104-.05744 1.64105.14359.51898.34872 1.10155.7036 1.34976.11589.49983.31863.97543.59898 1.40515l-.22564 2.05131c-1.29027.3426-6.29342 2.0226-6.29342 7.7334zm8.50473-8.1519c.64911.2332 1.35913.2332 2.00827 0 .4678-.1767.8959-.4444 1.2595-.7877l.16 1.477-1.1529 2.6215-.32-.7241.4226-.9456c.0371-.0831.0455-.1761.024-.2645-.0215-.0883-.0718-.1671-.143-.2237l-.99281-.7836c-.0726-.0578-.16262-.0892-.25539-.0892-.09276 0-.18279.0314-.25539.0892l-.99078.7856c-.07069.0566-.12069.1349-.14221.2229-.02152.0879-.01335.1805.02323.2633l.42052.9436-.32.722-1.15899-2.6174.16821-1.4483c.36076.3329.78398.5909 1.24514.759zm.89027 2.4206-.36513-.8205.48616-.3857.48617.3857-.36515.8205c-.02317.0523-.03515.1089-.03515.1661 0 .0573.01198.1139.03515.1662l.69955 1.5713-.0636.1456c-.0645.145-.1697.2682-.30273.3547-.13307.0865-.28837.1325-.44706.1325-.1587 0-.31399-.046-.44707-.1325-.13307-.0865-.23821-.2097-.30269-.3547l-.07795-.1497.6954-1.5672c.02412-.0523.03695-.1091.03766-.1668.00071-.0576-.01073-.1147-.03356-.1676zm8.8063 5.3211h-17.370519c.227699-4.7919 4.402109-6.2052 5.608279-6.5109l1.57746 3.5693c.12647.292.33611.5403.60277.7139.26666.1737.57854.265.89674.2625.3182.0025.63007-.0888.89677-.2625.2666-.1736.4763-.4219.6027-.7139l1.5775-3.5693c1.1918.318 5.3785 1.7744 5.6083 6.5109zm-12.19301-12.34071c-.16411-.58052-.12924-.80821-.10872-.87591h.01231c.06915.00646.13882-.00474.20246-.03256s.11918-.07134.16141-.12648c.04223-.05515.06977-.12011.08004-.1888.01026-.0687.00292-.13888-.02134-.20396-.05328-.1444-.09311-.29341-.11898-.44513-.11666-.48008-.12087-.98061-.01231-1.46259.14056-.56322.43536-1.0761.8513-1.48104.24359-.25729.51938-.48206.82052-.66873.23229-.16384.48639-.29434.75488-.387697.22012-.073381.44927-.116174.68104-.127181.59701-.064494 1.1991.062669 1.719.363078.3192.16512.5899.41042.7856.71181.0301.06179.0758.11459.1327.15312.0569.03852.1229.06141.1915.06637.1821.04218.3409.15317.443.30975.2441.33026.4841 1.03796.238 2.52106-.0301.15455-.0712.30674-.1231.45539-.0228.06382-.0295.13231-.0194.19934.0102.06703.0367.1305.0774.18476.0406.05425.094.09759.1555.12614.0615.02854.1291.04142.1968.03746h.0164c.0205.06359.0574.28923-.1087.87386-.1806.64411-.3241.83693-.3693.88411-.0806.01806-.1539.06002-.2102.12041-.0564.0604-.0932.13639-.1057.21806-.1456.9436-.9313 2.17647-2.1026 2.59897-.47001.1692-.98431.1692-1.45435 0-1.1754-.4102-1.94054-1.62255-2.09028-2.60308-.01246-.08166-.04928-.15766-.10565-.21805-.05636-.06039-.12964-.10236-.21025-.12041-.03898-.04718-.18052-.24001-.35898-.88207z" fill="#5a6f84"/></svg>

<svg width="20" height="20" viewBox="0 0 20 20" fill="none" xmlns="http://www.w3.org/2000/svg">
<path d="M0 19.5897C0 19.6985 0.0432239 19.8029 0.120163 19.8798C0.197102 19.9568 0.301454 20 0.410262 20H18.6218C18.7306 20 18.835 19.9568 18.9119 19.8798C18.9888 19.8029 19.0321 19.6985 19.0321 19.5897C19.0321 13.8809 14.0351 12.205 12.7386 11.8604L12.513 9.78448C12.7889 9.3657 12.9895 8.90198 13.1058 8.4142C13.4545 8.1742 13.6597 7.61214 13.8135 7.06239C14.0392 6.26443 14.0187 5.74339 13.7581 5.42134C13.7095 5.3623 13.6521 5.3111 13.5879 5.26954C13.6002 5.21826 13.6104 5.16698 13.6227 5.10954C13.8669 3.6449 13.7253 2.56797 13.2125 1.90744C13.0167 1.65022 12.7468 1.45909 12.4391 1.35974C12.1759 0.996407 11.8337 0.697603 11.4381 0.485887C10.7771 0.102402 10.0113 -0.0606906 9.25141 0.0202394C8.94835 0.0352474 8.64879 0.0918464 8.36114 0.188447C8.02505 0.303499 7.70674 0.465071 7.41549 0.668453C7.06539 0.889477 6.74486 1.15417 6.46163 1.45616C5.94512 1.9617 5.57936 2.6009 5.4052 3.30234C5.2677 3.89689 5.2677 4.51498 5.4052 5.10954C5.41477 5.16151 5.42503 5.21279 5.43597 5.26339C5.37514 5.30377 5.32055 5.35284 5.27392 5.40903C5.00725 5.72698 4.98879 6.25007 5.21648 7.05008C5.36007 7.56906 5.5652 8.15163 5.92008 8.39984C6.03597 8.89967 6.23871 9.37527 6.51906 9.80499L6.29342 11.8563C5.00315 12.1989 0 13.8789 0 19.5897ZM8.50473 11.4378C9.15384 11.671 9.86386 11.671 10.513 11.4378C10.9808 11.2611 11.4089 10.9934 11.7725 10.6501L11.9325 12.1271L10.7796 14.7486L10.4596 14.0245L10.8822 13.0789C10.9193 12.9958 10.9277 12.9028 10.9062 12.8144C10.8847 12.7261 10.8344 12.6473 10.7632 12.5907L9.77039 11.8071C9.69779 11.7493 9.60777 11.7179 9.515 11.7179C9.42224 11.7179 9.33221 11.7493 9.25961 11.8071L8.26883 12.5927C8.19814 12.6493 8.14814 12.7276 8.12662 12.8156C8.1051 12.9035 8.11327 12.9961 8.14985 13.0789L8.57037 14.0225L8.25037 14.7445L7.09138 12.1271L7.25959 10.6788C7.62035 11.0117 8.04357 11.2697 8.50473 11.4378V11.4378ZM9.395 13.8584L9.02987 13.0379L9.51603 12.6522L10.0022 13.0379L9.63705 13.8584C9.61388 13.9107 9.6019 13.9673 9.6019 14.0245C9.6019 14.0818 9.61388 14.1384 9.63705 14.1907L10.3366 15.762L10.273 15.9076C10.2085 16.0526 10.1033 16.1758 9.97027 16.2623C9.8372 16.3488 9.6819 16.3948 9.52321 16.3948C9.36451 16.3948 9.20922 16.3488 9.07614 16.2623C8.94307 16.1758 8.83793 16.0526 8.77345 15.9076L8.6955 15.7579L9.3909 14.1907C9.41502 14.1384 9.42785 14.0816 9.42856 14.0239C9.42927 13.9663 9.41783 13.9092 9.395 13.8563V13.8584ZM18.2013 19.1795H0.830781C1.05848 14.3876 5.23289 12.9743 6.43906 12.6686L8.01652 16.2379C8.14299 16.5299 8.35263 16.7782 8.61929 16.9518C8.88595 17.1255 9.19783 17.2168 9.51603 17.2143V17.2143C9.83423 17.2168 10.1461 17.1255 10.4128 16.9518C10.6794 16.7782 10.8891 16.5299 11.0155 16.2379L12.593 12.6686C13.7848 12.9866 17.9715 14.443 18.2013 19.1795ZM6.00829 6.83879C5.84418 6.25827 5.87905 6.03058 5.89957 5.96288H5.91188C5.98103 5.96934 6.0507 5.95814 6.11434 5.93032C6.17798 5.9025 6.23352 5.85898 6.27575 5.80384C6.31798 5.74869 6.34552 5.68373 6.35579 5.61504C6.36605 5.54634 6.35871 5.47616 6.33445 5.41108C6.28117 5.26668 6.24134 5.11767 6.21547 4.96595C6.09881 4.48587 6.0946 3.98534 6.20316 3.50336C6.34372 2.94014 6.63852 2.42726 7.05446 2.02232C7.29805 1.76503 7.57384 1.54026 7.87498 1.35359C8.10727 1.18975 8.36137 1.05925 8.62986 0.965893C8.84998 0.892512 9.07913 0.849719 9.3109 0.838712C9.90791 0.774218 10.51 0.901381 11.0299 1.20179C11.3491 1.36691 11.6198 1.61221 11.8155 1.9136C11.8456 1.97539 11.8913 2.02819 11.9482 2.06672C12.0051 2.10524 12.0711 2.12813 12.1397 2.13309C12.3218 2.17527 12.4806 2.28626 12.5827 2.44284C12.8268 2.7731 13.0668 3.4808 12.8207 4.9639C12.7906 5.11845 12.7495 5.27064 12.6976 5.41929C12.6748 5.48311 12.6681 5.5516 12.6782 5.61863C12.6884 5.68566 12.7149 5.74913 12.7556 5.80339C12.7962 5.85764 12.8496 5.90098 12.9111 5.92953C12.9726 5.95807 13.0402 5.97095 13.1079 5.96699H13.1243C13.1448 6.03058 13.1817 6.25622 13.0156 6.84085C12.835 7.48496 12.6915 7.67778 12.6463 7.72496C12.5657 7.74302 12.4924 7.78498 12.4361 7.84537C12.3797 7.90577 12.3429 7.98176 12.3304 8.06343C12.1848 9.00703 11.3991 10.2399 10.2278 10.6624C9.75779 10.8316 9.24349 10.8316 8.77345 10.6624C7.59805 10.2522 6.83291 9.03985 6.68317 8.05932C6.67071 7.97766 6.63389 7.90166 6.57752 7.84127C6.52116 7.78088 6.44788 7.73891 6.36727 7.72086C6.32829 7.67368 6.18675 7.48085 6.00829 6.83879Z" fill="#5A6F84"/>
</svg>
